X:58
T:Hare in the Corn
Z: id:dc-jig-162
M:6/8
L:1/8
K:D Major
A|F2A AFA|BdB AFE|F3 EDE|F2D D2E|!
F2A AFA|BdB AFA|Bcd ecA|ded d2:|!
e|f3 fed|g2e ede|f3 fed|a3 bag|!
f3 fed|g2e edB|ABd ecA|ded d2:|!

